icon-themes/breeze_svg/cmd/32/sendtoback.svg

<svg viewBox="0 0 32 32" xmlns="http://www.w3.org/2000/svg"><path d="m8.5390625 5v18.085938l-3.7929687-3.792969-.7070313.707031 4 4 1 1 .9999995-1 4-4-.707031-.707031-3.7929685 3.792969v-18.085938zm6.4609375 0v1h13v-1zm0 7v1h13v-1zm0 8v1h13v-1zm-11 7v1h24v-1z" fill="#4d4d4d"/></svg>

<svg xmlns="http://www.w3.org/2000/svg" viewBox="0 0 32 32">
 <path 
     style="fill:#4d4d4d" 
     d="M 8.5390625 5 L 8.5390625 23.085938 L 4.7460938 19.292969 L 4.0390625 20 L 8.0390625 24 L 9.0390625 25 L 10.039062 24 L 14.039062 20 L 13.332031 19.292969 L 9.5390625 23.085938 L 9.5390625 5 L 8.5390625 5 z M 15 5 L 15 6 L 28 6 L 28 5 L 15 5 z M 15 12 L 15 13 L 28 13 L 28 12 L 15 12 z M 15 20 L 15 21 L 28 21 L 28 20 L 15 20 z M 4 27 L 4 28 L 28 28 L 28 27 L 4 27 z "
     />
</svg>
